components/icon/svg/24/navigation_close.svg

<?xml version="1.0" encoding="UTF-8"?>
<svg width="24px" height="24px" viewBox="0 0 24 24" version="1.1" xmlns="http://www.w3.org/2000/svg" xmlns:xlink="http://www.w3.org/1999/xlink">
    <!-- Generator: Sketch 64 (93537) - https://sketch.com -->
    <title>ic-db_navigation_close_24</title>
    <desc>Created with Sketch.</desc>
    <g id="Symbols" stroke="none" stroke-width="1" fill="none" fill-rule="evenodd">
        <g id="24dp-Icon/Navigation/Close" fill="#282D37">
            <path d="M5,18 C5,17.7188 5.0938,17.5 5.2812,17.3125 L10.5938,12 L5.2812,6.6875 C5.125,6.5 5.0312,6.2812 5.0312,6 C5.0312,5.4375 5.4688,5.0312 6,5.0312 C6.2812,5.0312 6.5,5.125 6.6875,5.2812 L12,10.5938 L17.3125,5.2812 C17.5,5.0938 17.7188,5 18,5 C18.5625,5 19,5.4375 19,6 C19,6.2812 18.9062,6.5 18.6875,6.6875 L13.4062,12 L18.6875,17.3125 C18.9062,17.5 19,17.7188 19,18 C19,18.5625 18.5625,19 18.0312,19 C17.7188,19 17.4688,18.875 17.3125,18.6875 L12,13.4062 L6.6875,18.6875 C6.5312,18.875 6.2812,19 5.9688,19 C5.4375,19 5,18.5625 5,18 Z" id="🎨-Color"></path>
        </g>
    </g>
</svg>

<svg width="24" height="24" xmlns="http://www.w3.org/2000/svg"><path d="M5 18c0-.281.094-.5.281-.688L10.594 12 5.28 6.687A1.03 1.03 0 015.031 6c0-.563.438-.969.969-.969.281 0 .5.094.688.25L12 10.594l5.313-5.313A.92.92 0 0118 5c.563 0 1 .438 1 1 0 .281-.094.5-.313.688L13.407 12l5.28 5.313A.844.844 0 0119 18a.98.98 0 01-.969 1 .915.915 0 01-.718-.313L12 13.407l-5.313 5.28A.915.915 0 015.97 19 .98.98 0 015 18z" fill="#282D37" fill-rule="evenodd"/></svg>
